launcher/android/assets/skins/day/svg/helpIcon.svg

<svg enable-background="new 0 0 50.00 50.00" height="50" viewBox="0 0 50 50" width="50" xmlns="http://www.w3.org/2000/svg" xmlns:xlink="http://www.w3.org/1999/xlink"><radialGradient id="a" cx="25" cy="25" gradientUnits="userSpaceOnUse" r="24"><stop offset="0" stop-color="#dbd7fc"/><stop offset=".991379" stop-color="#000eff"/></radialGradient><radialGradient id="b" cx="25" cy="-6.03449" gradientUnits="userSpaceOnUse" r="40"><stop offset="0" stop-color="#fff" stop-opacity=".486275"/><stop offset=".271552" stop-color="#fff1f1" stop-opacity=".486275"/><stop offset="1" stop-color="#0700ff" stop-opacity=".486275"/></radialGradient><radialGradient id="c" cx="25" cy="12.5862" gradientTransform="matrix(-1 0 0 -1 50.000026 25.17239)" gradientUnits="userSpaceOnUse" r="40"><stop offset=".116379" stop-color="#fff" stop-opacity="0"/><stop offset="1" stop-color="#fff" stop-opacity=".513725"/></radialGradient><g stroke-linejoin="round"><ellipse cx="25" cy="25" fill="url(#a)" rx="22.5" ry="22.5" stroke="#000" stroke-width="2"/><g stroke-width=".2"><ellipse cx="25" cy="25" fill="url(#b)" rx="20" ry="20"/><ellipse cx="25" cy="25" fill="url(#c)" rx="20" ry="20"/><path d="m34.3687 16.7208c0 .7459-.1041 1.4667-.3125 2.1625-.2083.6959-.5364 1.375-.9843 2.0375-.448.6625-1.0303 1.3125-1.7469 1.95-.7167.6375-1.5771 1.2646-2.5813 1.8813-.6625.4-1.2187.7927-1.6687 1.1781s-.8208.7938-1.1125 1.225c-.2917.4313-.5261.8948-.7031 1.3906-.1771.4959-.324 1.0521-.4407 1.6688h-5.075c.1667-.8375.3542-1.6167.5625-2.3375.2084-.7209.4792-1.3927.8125-2.0156.3334-.623.7407-1.2053 1.2219-1.7469.4813-.5417 1.0802-1.05 1.7969-1.525.7042-.4917 1.3135-.9396 1.8281-1.3438.5146-.4041.9375-.7896 1.2688-1.1562.3312-.3667.5781-.7334.7406-1.1.1625-.3667.2437-.75.2437-1.15 0-.3917-.0718-.7573-.2156-1.0969-.1437-.3396-.3552-.6375-.6344-.8937-.2791-.2563-.6302-.4594-1.0531-.6094s-.9073-.225-1.4531-.225c-1.0708 0-2.1198.1448-3.1469.4343-1.0271.2896-1.9656.6782-2.8156 1.1657l1.1187-5.125c.4-.1709.8511-.3334 1.3532-.4875.502-.1542 1.0333-.2896 1.5937-.4063.5604-.1166 1.1365-.2093 1.7281-.2781.5917-.0688 1.1813-.1031 1.7688-.1031 1.4708 0 2.7104.1896 3.7187.5687 1.0084.3792 1.8219.875 2.4407 1.4875.6187.6125 1.0645 1.3073 1.3375 2.0844.2729.7771.4093 1.5656.4093 2.3656zm-9.35 18.9375c0 .5042-.0979.9604-.2937 1.3688-.1958.4083-.4604.7604-.7938 1.0562-.3333.2959-.727.525-1.1812.6875s-.9479.2438-1.4813.2438c-.4958 0-.9552-.0771-1.3781-.2313-.4229-.1541-.7875-.3677-1.0937-.6406-.3063-.2729-.548-.5937-.725-.9625-.1771-.3687-.2657-.7656-.2657-1.1906 0-.5042.0948-.9667.2844-1.3875.1896-.4209.4542-.7761.7938-1.0656.3395-.2896.7364-.5157 1.1906-.6782s.9562-.2437 1.5062-.2437c.4917 0 .9459.0771 1.3625.2312.4167.1542.7782.3677 1.0844.6407.3063.2729.5479.5937.725.9625.1771.3687.2656.7718.2656 1.2093z" fill="#fff"/></g></g></svg>

﻿<?xml version="1.0" encoding="utf-8"?>
<!DOCTYPE svg PUBLIC "-//W3C//DTD SVG 1.1//EN" "http://www.w3.org/Graphics/SVG/1.1/DTD/svg11.dtd">
<svg xmlns="http://www.w3.org/2000/svg" xmlns:xlink="http://www.w3.org/1999/xlink" version="1.1" baseProfile="full" width="50" height="50" viewBox="0 0 50.00 50.00" enable-background="new 0 0 50.00 50.00" xml:space="preserve">
	<radialGradient id="SVGID_Fill1_" cx="25" cy="25" r="24" gradientUnits="userSpaceOnUse">
		<stop offset="0" stop-color="#DBD7FC" stop-opacity="1"/>
		<stop offset="0.991379" stop-color="#000EFF" stop-opacity="1"/>
	</radialGradient>
	<ellipse fill="url(#SVGID_Fill1_)" stroke-width="2" stroke-linejoin="round" stroke="#000000" stroke-opacity="1" cx="25" cy="25" rx="22.5" ry="22.5"/>
	<radialGradient id="SVGID_Fill2_" cx="25" cy="-6.03449" r="40" gradientUnits="userSpaceOnUse">
		<stop offset="0" stop-color="#FFFFFF" stop-opacity="0.486275"/>
		<stop offset="0.271552" stop-color="#FFF1F1" stop-opacity="0.486275"/>
		<stop offset="1" stop-color="#0700FF" stop-opacity="0.486275"/>
	</radialGradient>
	<ellipse fill="url(#SVGID_Fill2_)" stroke-width="0.2" stroke-linejoin="round" cx="25" cy="25" rx="20" ry="20"/>
	<radialGradient id="SVGID_Fill3_" cx="25" cy="12.5862" r="40" gradientUnits="userSpaceOnUse" gradientTransform="rotate(180.000000 25.000013 12.586195)">
		<stop offset="0.116379" stop-color="#FFFFFF" stop-opacity="0"/>
		<stop offset="1" stop-color="#FFFFFF" stop-opacity="0.513725"/>
	</radialGradient>
	<ellipse fill="url(#SVGID_Fill3_)" stroke-width="0.2" stroke-linejoin="round" cx="25" cy="25" rx="20" ry="20"/>
	<g>
		<path fill="#FFFFFF" fill-opacity="1" stroke-width="0.2" stroke-linejoin="round" d="M 34.3687,16.7208C 34.3687,17.4667 34.2646,18.1875 34.0562,18.8833C 33.8479,19.5792 33.5198,20.2583 33.0719,20.9208C 32.6239,21.5833 32.0416,22.2333 31.325,22.8708C 30.6083,23.5083 29.7479,24.1354 28.7437,24.7521C 28.0812,25.1521 27.525,25.5448 27.075,25.9302C 26.625,26.3156 26.2542,26.724 25.9625,27.1552C 25.6708,27.5865 25.4364,28.05 25.2594,28.5458C 25.0823,29.0417 24.9354,29.5979 24.8187,30.2146L 19.7437,30.2146C 19.9104,29.3771 20.0979,28.5979 20.3062,27.8771C 20.5146,27.1562 20.7854,26.4844 21.1187,25.8615C 21.4521,25.2385 21.8594,24.6562 22.3406,24.1146C 22.8219,23.5729 23.4208,23.0646 24.1375,22.5896C 24.8417,22.0979 25.451,21.65 25.9656,21.2458C 26.4802,20.8417 26.9031,20.4562 27.2344,20.0896C 27.5656,19.7229 27.8125,19.3562 27.975,18.9896C 28.1375,18.6229 28.2187,18.2396 28.2187,17.8396C 28.2187,17.4479 28.1469,17.0823 28.0031,16.7427C 27.8594,16.4031 27.6479,16.1052 27.3687,15.849C 27.0896,15.5927 26.7385,15.3896 26.3156,15.2396C 25.8927,15.0896 25.4083,15.0146 24.8625,15.0146C 23.7917,15.0146 22.7427,15.1594 21.7156,15.4489C 20.6885,15.7385 19.75,16.1271 18.9,16.6146L 20.0187,11.4896C 20.4187,11.3187 20.8698,11.1562 21.3719,11.0021C 21.8739,10.8479 22.4052,10.7125 22.9656,10.5958C 23.526,10.4792 24.1021,10.3865 24.6937,10.3177C 25.2854,10.2489 25.875,10.2146 26.4625,10.2146C 27.9333,10.2146 29.1729,10.4042 30.1812,10.7833C 31.1896,11.1625 32.0031,11.6583 32.6219,12.2708C 33.2406,12.8833 33.6864,13.5781 33.9594,14.3552C 34.2323,15.1323 34.3687,15.9208 34.3687,16.7208 Z M 25.0187,35.6583C 25.0187,36.1625 24.9208,36.6187 24.725,37.0271C 24.5292,37.4354 24.2646,37.7875 23.9312,38.0833C 23.5979,38.3792 23.2042,38.6083 22.75,38.7708C 22.2958,38.9333 21.8021,39.0146 21.2687,39.0146C 20.7729,39.0146 20.3135,38.9375 19.8906,38.7833C 19.4677,38.6292 19.1031,38.4156 18.7969,38.1427C 18.4906,37.8698 18.2489,37.549 18.0719,37.1802C 17.8948,36.8115 17.8062,36.4146 17.8062,35.9896C 17.8062,35.4854 17.901,35.0229 18.0906,34.6021C 18.2802,34.1812 18.5448,33.826 18.8844,33.5365C 19.2239,33.2469 19.6208,33.0208 20.075,32.8583C 20.5292,32.6958 21.0312,32.6146 21.5812,32.6146C 22.0729,32.6146 22.5271,32.6917 22.9437,32.8458C 23.3604,33 23.7219,33.2135 24.0281,33.4865C 24.3344,33.7594 24.576,34.0802 24.7531,34.449C 24.9302,34.8177 25.0187,35.2208 25.0187,35.6583 Z "/>
	</g>
</svg>
